X:2260 
T:Craig Willy Sill 
T:White Boys Dance 
C:Mr E Corteen (Surveyor of Roads)
C:Traditional
O:Isle of Man
Z:Clague collection
B:Kiaull Vannin #260 
L:1/8
M:6/8 
Q:160 
K:D 
A3/2A/ |A3/2F/ A3/2B/|A3/2F/ B3/2B/|B3/2A/ B3/2c/|d3/2B/ A3/2A/|A3/2F/ A3/2B/|A3/2F/ f3/2e/ [1 d3/2B/ A3/2B/| A3/2F/||[2 d3/2B/ A3/2c/|!fine! d2||
|f3/2f/| f3/2d/ f3/2g/|f3/2d/ a3/2f/|e3/2d/ B3/2c/|B3/2A/ f3/2f/|f3/2d/ f3/2g/|f3/2d/ a3/2f/|e3/2d/ B3/2!D.C.!c/| d2!fine!:|| 

